X:1
T:Title
%%score 1 2
L:1/8
Q:1/4=68
M:6/8
K:Bb
V:1 treble nm="Strings 1, Soprano"
V:2 bass nm="Strings 1, Bass"
V:1
 [Fd]2 [Fd]/[Ec]/ [DB][DF][DF] | [EG] [GB]2- [GB]2 z | [Fd][Fd][Fd] [Fd][Fc][FB] | [Fc]6 | %4
w: 1.~Oft~ in~ the~ noon day,~ the~|eve ning,~ *|And~ in~ the~ still ness~ of~|night,~|
 [Fd]2 [Fd]/[Ec]/ [DB][DF][DF] | [EG] [GB]2- [GB]2 z | [Fd][Fe][Fd] [Ec][EG][EA] | [DB]6 | %8
w: Sounds~ in~ the~ bos om~ this~|warn ing:~ *|"Turn~ from~ the~ e vil,~ do~|right."~|
 [EG]2 [EG]/[EG]/ [GB][FA][EG] | [EG] [DF]2- [DF]2 z | [Fd][Fd][Fd] [Fd][Fc][FB] | [Fc]6 | %12
w: Yet~ is~ the~ voice~ still~ un|heed ed,~ *|Though~ it~ is~ Je sus~ who~|pleads,~|
 [Fd]2 [Fd]/[Ec]/ [DB][DF][DF] | [EG] [GB]2- [GB]2 z | [Fd][Fe][Fd] [Ec][EG][EA] | [DB]6 | %16
w: Call ing~ the~ wan der ing~|sin ner,~ *|Of fer ing~ grace~ for~ your~|needs.~|
 [EG]2 [EG]/[EG]/ [GB][FA][EG] | [EG] [DF]2- [DF]2 z | [Fd][Fd][Fd] [Fd][Fc][FB] | [Fc]6 | %20
w: Up~ is~ the~ voice~ still~ un|heed ed,~ *|Though~ it~ is~ Je sus~ who~|pleads,~|
 [Fd]2 [Fd]/[Ec]/ [DB][DF][DF] | [EG] [GB]2- [GB]2 z | [Fd][Fe][Fd] [Ec][EG][EA] | [DB]6 |] %24
w: Tor ing~ the~ wan der ing~|sin ner,~ *|Of fer ing~ grace~ for~ your~|needs.~|
V:2
 [B,,B,]2 [B,,B,]/[B,,B,]/ [B,,B,][B,,B,][B,,B,] | [E,B,] [E,B,]2- [E,B,]2 z | %2
 [B,,B,][B,,B,][B,,B,] [B,,B,][C,A,][D,B,] | [F,A,]6 | %4
 [B,,B,]2 [B,,B,]/[B,,B,]/ [B,,B,][B,,B,][B,,B,] | [E,B,] [E,B,]2- [E,B,]2 z | %6
 [F,B,][F,C][F,B,] [F,A,][F,B,][F,C] | [B,,B,]6 | [E,B,]2 [E,B,]/[E,B,]/ [E,B,][E,B,][E,B,] | %9
 [B,,B,] [B,,B,]2- [B,,B,]2 z | [B,,B,][B,,B,][B,,B,] [B,,B,][C,A,][D,B,] | [F,A,]6 | %12
 [B,,B,]2 [B,,B,]/[B,,B,]/ [B,,B,][B,,B,][B,,B,] | [E,B,] [E,B,]2- [E,B,]2 z | %14
 [F,B,][F,C][F,B,] [F,A,][F,B,][F,C] | [B,,B,]6 | [E,B,]2 [E,B,]/[E,B,]/ [E,B,][E,B,][E,B,] | %17
 [B,,B,] [B,,B,]2- [B,,B,]2 z | [B,,B,][B,,B,][B,,B,] [B,,B,][C,A,][D,B,] | [F,A,]6 | %20
 [B,,B,]2 [B,,B,]/[B,,B,]/ [B,,B,][B,,B,][B,,B,] | [E,B,] [E,B,]2- [E,B,]2 z | %22
 [F,B,][F,C][F,B,] [F,A,][F,B,][F,C] | [B,,B,]6 |] %24

